suite-common/icons/assets/icons/shieldWarning.svg

<svg xmlns="http://www.w3.org/2000/svg" xml:space="preserve" fill="none" viewBox="0 0 40 40">
  <path fill="#000" fill-rule="evenodd" d="M7.191 6.801A1.94 1.94 0 0 0 5.764 7.81l-.197.357V14c0 4.421.021 5.995.087 6.5.771 5.891 3.638 10.471 8.646 13.811 1.846 1.231 4.87 2.622 5.7 2.622s3.854-1.391 5.7-2.622c5.008-3.34 7.875-7.921 8.646-13.811.066-.505.087-2.079.087-6.5V8.167l-.206-.367c-.221-.392-.676-.787-1.082-.939-.205-.077-2.333-.094-12.945-.103-6.985-.005-12.839.014-13.009.043m25.655 1.611.154.145-.001 5.171c0 2.922-.03 5.52-.068 5.972-.479 5.662-3.163 10.108-8.098 13.412-1.178.789-3.065 1.746-4.316 2.189l-.517.183-.517-.183c-1.251-.443-3.138-1.4-4.316-2.189-4.036-2.702-6.595-6.212-7.626-10.46C7.048 20.625 7 19.834 7 13.771V8.575l.145-.154.145-.154h25.401zM19.7 14.326a1 1 0 0 0-.267.206c-.129.144-.134.256-.151 3.508-.021 3.759-.03 3.677.436 3.872.334.14.705.028.886-.266.126-.205.13-.334.113-3.595L20.7 14.67l-.173-.174c-.187-.186-.595-.27-.827-.17m-.36 11.183a1.49 1.49 0 0 0-.784 1.763c.502 1.713 2.974 1.376 2.974-.405 0-.47-.169-.843-.52-1.143-.498-.426-1.093-.503-1.67-.215"/>
</svg>

<svg xmlns="http://www.w3.org/2000/svg" xml:space="preserve" fill="none" viewBox="0 0 40 40"><path d="M7.191 6.801 C 6.560 6.908,6.073 7.253,5.764 7.810 L 5.567 8.167 5.567 14.000 C 5.567 18.421,5.588 19.995,5.654 20.500 C 6.425 26.391,9.292 30.971,14.300 34.311 C 16.146 35.542,19.170 36.933,20.000 36.933 C 20.830 36.933,23.854 35.542,25.700 34.311 C 30.708 30.971,33.575 26.390,34.346 20.500 C 34.412 19.995,34.433 18.421,34.433 14.000 L 34.433 8.167 34.227 7.800 C 34.006 7.408,33.551 7.013,33.145 6.861 C 32.940 6.784,30.812 6.767,20.200 6.758 C 13.215 6.753,7.361 6.772,7.191 6.801 M32.846 8.412 L 33.000 8.557 32.999 13.728 C 32.999 16.650,32.969 19.248,32.931 19.700 C 32.452 25.362,29.768 29.808,24.833 33.112 C 23.655 33.901,21.768 34.858,20.517 35.301 L 20.000 35.484 19.483 35.301 C 18.232 34.858,16.345 33.901,15.167 33.112 C 11.131 30.410,8.572 26.900,7.541 22.652 C 7.048 20.625,7.000 19.834,7.000 13.771 L 7.000 8.575 7.145 8.421 L 7.290 8.267 19.991 8.267 L 32.691 8.267 32.846 8.412 M19.700 14.326 C 19.627 14.358,19.507 14.451,19.433 14.532 C 19.304 14.676,19.299 14.788,19.282 18.040 C 19.261 21.799,19.252 21.717,19.718 21.912 C 20.052 22.052,20.423 21.940,20.604 21.646 C 20.730 21.441,20.734 21.312,20.717 18.051 L 20.700 14.670 20.527 14.496 C 20.340 14.310,19.932 14.226,19.700 14.326 M19.340 25.509 C 18.675 25.841,18.351 26.569,18.556 27.272 C 19.058 28.985,21.530 28.648,21.530 26.867 C 21.530 26.397,21.361 26.024,21.010 25.724 C 20.512 25.298,19.917 25.221,19.340 25.509 " stroke="none" fill-rule="evenodd" fill="black"></path></svg>
